X: 5
T: Barney Brannigan
R: slip jig
M: 9/8
L: 1/8
K: Dmaj
|:F2A ~A3 ~A3 | F2A ~A3 Bcd | F2A ~A3 ~A3 | e2e e2d cBA :|
|:f2A f2A fed | f2A f2a gfe | f2A f2A fed | B2e e2d cBA :|
|:f2a e2f d2z | g2f e2d cBA | f2a e2f d2z | ~B3 A2G FED :|


Tune 1429	Setting 14807

